X:92
T:Tam Lin
S:The Session: https://thesession.org/tunes/248#setting248
S:https://JamBuddy.live 2025
C:Traditional
R:reel
K:Dm
M:4/4
L:1/8
Q:120
|: A,2DA, FA,DA,| B,2DB, FB,DB,| C2EC GCEC| FEDC A,DDC|
! A,2DA, FA,DA,| B,2DB, FB,DB,| C2EC GCEC| FEDC A,DD2:| ! |:
dA~A2 FADA| dA~A2 FADA| cG~G2 EG~G2| cG~G2 cdec|
! dA~A2 FADA| dA~A2 FADA,| ~B,3A, B,CDE| FDEC A,DD2:|

